X: 305782
M: 2/4
L: 1/16
K: F
c'2c'2 |\
a2a2f2f2 | ^f2g2g2g2 | c2c2 dfeg | g2a2c'2c'2 |\
a2a2f2f2 | ^f2g2g2g2 | c2c2 c2de | f4 H|]
c>dc>B A>Bc>d | c>dc>B A>Bc>d | e>fg>a b>gf>e | f2a2 A>Bc>d |\
c>dc>B A>Bc>d | c>dc>B A>Bc>d | e>fg>a b>gf>e | "^D.C."f4 :|


